X: 473
T: Sliczny chłopiec	 op. 74
C: Fryderyk Chopin
%%abc-version 2.0
%%abcx-abcm2ps-target-version 5.9.1 (29 Sep 2008)
%%abc-creator hum2abc beta
%%abcx-conversion-date 2021/10/03 11:24:07
%%abc-edited-by Jędrzej Mróz
%%abc-edited-by Antoni Szymański
%%abcx-initial-encoding-date 2019-08-26
%%humdrum-veritas 3737907734
%%humdrum-veritas-data 2570015507
%%linebreak <none>
%%barnumbers 0
L: 1/4
M: 3/4
N: Derived from 074-1-G-008.krn
P: Zbiór śpiewów polskich z towarzyszeniem fortepianu
Q: "M. M. [quarter] = 96."
V: 1 clef=treble
V: 2 clef=treble
V: 3 clef=bass
K: D
[V:1] z [I:setbarnb 1]||  
[V:2] A ||  
[V:3] z ||  
[V:1] z3 | 
[V:2] b/a/g/c/[f/G/]e/ | 
[V:3] A,,[GEA,]^A,, | 
[V:1] z3 | 
[V:2] d/F/c/B/[A/=F/]^G/ | 
[V:3] B,,[DB,]z | 
[V:1] z3 | 
[V:2] [B/^F/]!trill!A/^G/A/[e/=G/][f/A/] | 
[V:3] A,,[FDA,][CA,] | 
[V:1] z3 | 
[V:2] [dF]zF | 
[V:3] zA,A, & D,3 | 
[V:1] F/> ^E/FG | 
[V:2] z[FDA,][FDA,] | 
[V:3] D,3 | 
[V:1] A!accent!B3/A/ | 
[V:2] z[EA,][AEA,] | 
[V:3] C,3 | 
[V:1] A/ =c<BF/ | 
[V:2] [GE]z[B^DA,] & A,/=C/xx | 
[V:3] =C,/A,,/B,,2 | 
[V:1] (3A/B/A/G3/F/ | 
[V:2] z[GEB,][GD_B,] | 
[V:3] E,,E,E, | 
[V:1] E/> A/ {/c}BA | 
[V:2] z[G^CA,][GCA,] | 
[V:3] zE,E, & A,,3 | 
[V:1] ^G/ A/d2 | 
[V:2] z[F2D2A,2] | 
[V:3] D,3 | 
[V:1] F/> G/AB | 
[V:2] z[FDA,][=FD^G,] | 
[V:3] A,,2A,, | 
[V:1] A/ E/Fz | 
[V:2] [EC=G,][DF,][AA,] | 
[V:3] A,,D,,z | 
[V:1] A/ A/BA | 
[V:2] z[GEA,][AGEA,] | 
[V:3] [C,3C,,3] | 
[V:1] ^G/ A/!fermata!f2- | 
[V:2] z[AFDA,]z | 
[V:3] [D,2D,,2]z | 
[V:1] f/e/ d/ F/ c/ B/ | 
[V:2] z[FDA,][FDA,] | 
[V:3] A,,3 | 
[V:1] A/ C/Dz | 
[V:2] [GCA,][FDA,]z | 
[V:3] A,,D,B,, | 
[V:1] (3B/c/ B/AB | 
[V:2] z[ED][ED] | 
[V:3] E,3 | 
[V:1] cA3/E/ | 
[V:2] z[EC][EC] | 
[V:3] zE,2 & A,,3 | 
[V:1] B/ B<AB/ | 
[V:2] z[EDF,][ED^G,] | 
[V:3] E,,3 | 
[V:1] cA/^G/=G/ F/ | 
[V:2] z[A2E2C2A,2] | 
[V:3] xE,2 & [A,,3A,,,3] | 
[V:1] E/> A/ {/c}BA | 
[V:2] z[GEA,][GEA,] | 
[V:3] C,3 | 
[V:1] ^G/ A/d2 | 
[V:2] z[FDA,]z | 
[V:3] D,2z | 
[V:1] F/> =G/AB | 
[V:2] z[FDA,][=FD^G,] | 
[V:3] A,,2A,, | 
[V:1] A/ E/Fz | 
[V:2] [EC=G,][ECF,][DB,F,] | 
[V:3] A,,^A,,B,, | 
[V:1] A/ A/BA | 
[V:2] z[AGEA,][AGEA,] | 
[V:3] [C,3C,,3] | 
[V:1] ^G/ A/f2- | 
[V:2] z[AFEA,][BF^DB,A,] | 
[V:3] [=C,2=C,,2][B,,B,,,] | 
[V:1] f/e/ d/ F/ c/ B/ | 
[V:2] [^G=DB,][ADA,][=GEB,] | 
[V:3] E,,F,,G,, | 
[V:1] A/ C/Dz ||  
[V:2] [GCA,][FDA,]A ||  
[V:3] A,,[D,D,,]z ||  
[V:1] z3 | 
[V:2] b/a/g/c/[f/G/]e/ | 
[V:3] A,,[GEA,]^A,, | 
[V:1] z3 | 
[V:2] d/F/c/B/[A/=F/]^G/ | 
[V:3] B,,[DB,]z | 
[V:1] z3 | 
[V:2] [B/^F/]!trill!A/^G/A/[e/=G/][f/A/] | 
[V:3] A,,[FDA,][CA,] | 
[V:1] z3 |]  
[V:2] [dF]zz |]  
[V:3] zA,z & D,2z |]
